Numix-GalliumOS/32/actions/window-new.svg

<svg width="32" xmlns="http://www.w3.org/2000/svg" height="32" viewBox="0 0 32 32" xmlns:xlink="http://www.w3.org/1999/xlink">
<path style="fill:#fff" d="M 3.75 2.019531 C 1.695312 2.019531 0 3.714844 0 5.769531 L 0 30.015625 L 28 30.015625 L 28 5.769531 C 28 3.714844 26.304688 2.019531 24.25 2.019531 Z "/>
<path style="fill:#888" d="M 3.75 2.019531 C 1.695312 2.019531 0 3.714844 0 5.769531 L 0 30.015625 L 28 30.015625 L 28 5.769531 C 28 3.714844 26.304688 2.019531 24.25 2.019531 Z M 3.75 4.019531 L 24.25 4.019531 C 25.230469 4.019531 26 4.789062 26 5.769531 L 26 28.015625 L 2 28.015625 L 2 5.769531 C 2 4.789062 2.769531 4.019531 3.75 4.019531 Z "/>
<path style="fill:#000;fill-opacity:.102" d="M 2 12 L 10 12 L 10 28 L 2 28 Z "/>
<g style="fill:#888;fill-opacity:.902">
<path d="M 2 10 L 2 12 L 26 12 L 26 10 Z "/>
<path d="M 10 12 L 10 28 L 12 28 L 12 12 Z "/>
</g>
<path style="fill:#859900" d="M 32 20 L 26 20 L 26 14 L 20 14 L 20 20 L 14 20 L 14 26 L 20 26 L 20 32 L 26 32 L 26 26 L 32 26 Z "/>
</svg>

<svg xmlns="http://www.w3.org/2000/svg" viewBox="0 0 32 32">
 <rect width="30" height="25" x="1" y="4" style="fill:#fff;opacity:1;fill-opacity:1;stroke:none"/>
 <path d="m 1.074 2 c -0.586 0.059 -1.078 0.608 -1.074 1.197 l 0 25.605 c 0 0.628 0.57 1.197 1.199 1.197 l 29.602 0 c 0.629 0 1.199 -0.569 1.199 -1.197 l 0 -25.605 c 0 -0.628 -0.57 -1.197 -1.199 -1.197 m -28.801 4 28 0 0 21.965 -28 0 z" style="fill:#888;fill-opacity:1"/>
 <path d="m 32 20 -6 0 0 -6 -6 0 0 6 -6 0 0 6 6 0 0 6 6 0 0 -6 6 0 z" style="fill:#859900"/>
</svg>
